X: 878
T: The Bow-legged Tailor
N:"Collected by Early"
B:O'Neill's 878
Z:Transcribed by Dan G. Petersen, dangp@post6.tele.dk
M:6/8
L:1/8
K:G
G|GAG gfg|edc B2A|GAG BAG|FAA cBA|
GAG gfg|afd cAF|DEG Adc|BGG G2:|
d|dBG dBG|ecA dBG|gba gBd|cAA ABc|
dBg dBG|EFG AFD|GFG Adc|BGG G2:|


